X: 103
T:Morning Fair Hornpipe. GS.103
T:Rickett's Hp,aka. GS.103
T:Manchester Hp,aka. GS.103
M:2/2
L:1/8
Q:160
S:George Spencer m/s, Leeds,1831
R:Hornpipe
O:England
A:Leeds
N:Differs from Rickett's Hp. in the B strain..The name Charles  is
N:written on the stave at the end of the music,
N:then crossed out.  The missing surname resembles 'Naseby'
H:1831
Z:vmp.Cherri Graebe
K:D major
A | dcdA FAdf | edcB A2 ef | gege Bged | dcec Aged | dcdA FAdf | 
edcB A2 g2 | fafd Bgec | "1"{c}d2 {c}d2 {c}d2 :||:  fg | affd dffa | bgg
e efgb |
affe bged | cdBc Agfe | dcdG FAdf | edcB A2g2 | fafd Bgec | {c}d2 {c}
d2
 {c}d2 :||
